code-braces-box.svg

<svg fill="currentColor" viewBox="0 0 24 24"><path d="M19 3H5c-1.1 0-2 .9-2 2v14c0 1.1.9 2 2 2h14c1.1 0 2-.9 2-2V5c0-1.1-.9-2-2-2m-8 5H9v2c0 1.1-.9 2-2 2 1.1 0 2 .9 2 2v2h2v2H9c-1.1 0-2-.9-2-2v-1c0-1.1-.9-2-2-2v-2c1.1 0 2-.9 2-2V8c0-1.1.9-2 2-2h2zm8 5c-1.1 0-2 .9-2 2v1c0 1.1-.9 2-2 2h-2v-2h2v-2c0-1.1.9-2 2-2-1.1 0-2-.9-2-2V8h-2V6h2c1.1 0 2 .9 2 2v1c0 1.1.9 2 2 2z"/></svg>

<svg  viewBox="0 0 24 24" fill="currentColor"><path  d="M19 3H5C3.9 3 3 3.9 3 5V19C3 20.1 3.9 21 5 21H19C20.1 21 21 20.1 21 19V5C21 3.9 20.1 3 19 3M11 8H9V10C9 11.1 8.1 12 7 12C8.1 12 9 12.9 9 14V16H11V18H9C7.9 18 7 17.1 7 16V15C7 13.9 6.1 13 5 13V11C6.1 11 7 10.1 7 9V8C7 6.9 7.9 6 9 6H11V8M19 13C17.9 13 17 13.9 17 15V16C17 17.1 16.1 18 15 18H13V16H15V14C15 12.9 15.9 12 17 12C15.9 12 15 11.1 15 10V8H13V6H15C16.1 6 17 6.9 17 8V9C17 10.1 17.9 11 19 11V13Z"/></svg>
